X: 33
T:Tiroulette
C:Paris
O:France
A:Centre
R:Scottish
S:80 airs  danser du centre France - La Chavanne - 1991
S:66
Z:Transcrit et/ou corrig par Michel BELLON - 2005-05-15
Z:Pour toute observation mailto:galouvielle@free.fr
M:4/4
L:1/8
K:G
S Bc |: d2Bd gfga | c'bag d3B | cBce BABd |1,3 ABcd e2d2 :|2 A4 G2Bc :|4 A4 G2AB |:
c2Bc e2dc | BABd G2AB | c2Bc e2dc | e2d4AB | c2Bc e2dc | BABd G2AB | c2Bc edcB |1 A4G2AB :|2 A4G2 S |]
%%footer $D   Galouvielle-MBe 2005 \nValse France
